X:55
T:Jig, A
M:6/8
S:unknown, photocopy
I:speed 250
K:D
DE |: F3AFE | EDB, A,B,D | FEF GFG | ABF AFE |
F3 AFE | {F}EDB, A,B,D | FEF GFG |[1BAF D2E:|[2BAF D2e|
|:(3faf d dcd | edc Bcd | (3faf d dcd | A (3cBA Ade |
g2d dcd | edc Bcd | f3 gec | dAF D3:|
